X:40
T:Cooley's Hornpipe (in D)
T:Crowley's Hornpipe?
M:4/4
L:1/8
S:learned from David Kidd
R:Hornpipe
D:Noel Hill and Tony Linnane
Z:Lorna LaVerne
K:D
(3ABc |
dD~D2 B,DA,D | FD(3FGA dA(3FGA | BDGB AFDE | FEED E2(3ABc |
dD~D2 B,DA,D | FD(3FGA dA(3FGA | BGED CEAG | F2 D2 D2(3ABc |
dD~D2 B,DA,D | FD(3FGA dA(3FGA | BDGB AFDE | FEED E2(3ABc |
dD~D2 B,DA,D | FD(3FGA dA(3FGA | BGED CEAG | F2D2 D2DE |]
FEFA BABc | d2fd BdAF | A2(3dcB AFDE | FEED E3G |
FD~D2 ~B,2DB, | ~B,2GB, A,B,D2 | dcdB AF(3GFE | F2D2 D2DE |
FEFA BABc | d2fd BdAF | A2(3dcB AFDE | FEED E3G |
FD~D2 ~B,2DB, | ~B,2GB, A,B,D2 | dcdB AF(3GFE | F2D2 D2 |]

